assets/symbols/mulberry/rake.svg

<svg height="850.394" viewBox="0 0 850.394 850.394" width="850.394" xmlns="http://www.w3.org/2000/svg"><path d="m714.64 100.68-430.42 545.1-28.16-21.91 430.43-545.1z" fill="#9e5b16"/><g fill="none"><g stroke="#000"><path d="m714.64 100.68-430.42 545.1-28.16-21.91 430.43-545.1z" stroke-width="13.428"/><path d="m151.73 551.6 233.48 182.22" stroke-linecap="round" stroke-linejoin="round" stroke-width="22.379"/><path d="m149.6 563.3v52.59m25.18-36.74v52.59m26.16-33.62v52.6m26.1-27.07v52.59m25.18-36.73v52.59m26.15-33.62v52.59m27.84-29.51v52.59m25.17-36.74v52.6m26.16-33.62v52.59m29.28-29.99v52.59" stroke-linecap="square" stroke-linejoin="bevel" stroke-width="17.904"/></g><path d="m0 0h850.394v850.394h-850.394z"/></g></svg>

<svg xmlns="http://www.w3.org/2000/svg" width="850.394" height="850.394" viewBox="0 0 850.394 850.394" overflow="visible"><path fill="#9e5b16" d="M714.64 100.68l-430.42 545.1-28.16-21.91 430.43-545.1z"/><g fill="none" stroke="#000"><path stroke-width="13.428" d="M714.64 100.68l-430.42 545.1-28.16-21.91 430.43-545.1z"/><path stroke-width="22.379" stroke-linecap="round" stroke-linejoin="round" d="M151.73 551.6l233.48 182.22"/><path stroke-width="17.904" stroke-linecap="square" stroke-linejoin="bevel" d="M149.6 563.3v52.59M174.78 579.15v52.59M200.94 598.12v52.6M227.04 623.65v52.59M252.22 639.51v52.59M278.37 658.48v52.59M306.21 681.56v52.59M331.38 697.41v52.6M357.54 716.39v52.59M386.82 738.99v52.59"/></g><path fill="none" d="M0 0h850.394v850.394H0z"/></svg>
